icons/square/48/museeks.svg

<?xml version="1.0" encoding="UTF-8" standalone="no"?>
<svg id="svg4340" version="1.1" xmlns="http://www.w3.org/2000/svg" height="48" xmlns:dc="http://purl.org/dc/elements/1.1/" xmlns:cc="http://creativecommons.org/ns#" width="48" viewBox="0 0 48 48.000001" xmlns:rdf="http://www.w3.org/1999/02/22-rdf-syntax-ns#">
 <defs id="defs4342">
  <linearGradient id="linearGradient4217" x1="1" gradientUnits="userSpaceOnUse" gradientTransform="translate(-48 .00221)" x2="47">
   <stop id="stop7-93" offset="0" style="stop-color:#15a9db"/>
   <stop id="stop9-1" offset="1" style="stop-color:#1bb5e9"/>
  </linearGradient>
 </defs>
 <metadata id="metadata4345">
  <rdf:RDF>
   <cc:Work rdf:about="">
    <dc:format>image/svg+xml</dc:format>
    <dc:type rdf:resource="http://purl.org/dc/dcmitype/StillImage"/>
    <dc:title/>
   </cc:Work>
  </rdf:RDF>
 </metadata>
 <g id="g21">
  <path id="path23" d="m1 43v0.25c0 2.216 1.784 4 4 4h38c2.216 0 4-1.784 4-4v-0.25c0 2.216-1.784 4-4 4h-38c-2.216 0-4-1.784-4-4zm0 0.5v0.5c0 2.216 1.784 4 4 4h38c2.216 0 4-1.784 4-4v-0.5c0 2.216-1.784 4-4 4h-38c-2.216 0-4-1.784-4-4z" style="opacity:.02"/>
  <path id="path25" d="m1 43.25v0.25c0 2.216 1.784 4 4 4h38c2.216 0 4-1.784 4-4v-0.25c0 2.216-1.784 4-4 4h-38c-2.216 0-4-1.784-4-4z" style="opacity:.05"/>
  <path id="path27" d="m1 43v0.25c0 2.216 1.784 4 4 4h38c2.216 0 4-1.784 4-4v-0.25c0 2.216-1.784 4-4 4h-38c-2.216 0-4-1.784-4-4z" style="opacity:.1"/>
 </g>
 <rect id="rect4215" width="46" y="1" rx="4" height="46" transform="rotate(-90)" x="-47" style="fill:url(#linearGradient4217)"/>
 <g id="g23-1" transform="translate(55.501,3.5)">
  <g id="g25-8">
   <g id="g27-7" transform="translate(1,1)"></g>
  </g>
 </g>
 <g id="g27" transform="translate(116.65 -2.5339)">
  <g id="g29">
   <g id="g31" transform="translate(1,1)"></g>
  </g>
 </g>
 <g id="g47" transform="translate(116.65 -2.5339)">
  <g id="g49">
   <g id="g51" transform="translate(1,1)"></g>
  </g>
 </g>
 <g id="g57">
  <g id="g59" transform="translate(0,-1004.4)">
   <path id="path61" d="m1 1043.4v4c0 2.216 1.784 4 4 4h38c2.216 0 4-1.784 4-4v-4c0 2.216-1.784 4-4 4h-38c-2.216 0-4-1.784-4-4z" style="opacity:.1"/>
  </g>
 </g>
 <path id="path4232" d="m12 11v26l7.889-6.838 4.111 3.838 4-4v6h8v-24h-4l-8.9043 8.6172-11.096-9.617zm20.809 3h1.191v20h-4v-8.828l-6.049 6.047-2.541-2.373 5.59-4.846-2.387-2.068 8.196-7.932zm-18.809 1.381 9.945 8.619-9.945 8.619v-17.238z" style="opacity:.1"/>
 <path id="rect4145" d="m12 10v26l7.889-6.838 4.111 3.838 4-4v6h8v-24h-4l-8.9043 8.6172-11.096-9.617zm20.809 3h1.191v20h-4v-8.828l-6.049 6.047-2.541-2.373 5.59-4.846-2.387-2.068 8.196-7.932zm-18.809 1.381 9.945 8.619-9.945 8.619v-17.238z" style="fill:#f9f9f9"/>
</svg>

<svg xmlns="http://www.w3.org/2000/svg" height="48" width="48" viewBox="0 0 48 48.000001">
  <defs>
    <linearGradient id="a" x1="1" gradientUnits="userSpaceOnUse" gradientTransform="translate(-48 .002)" x2="47">
      <stop offset="0" stop-color="#15a9db"/>
      <stop offset="1" stop-color="#1bb5e9"/>
    </linearGradient>
  </defs>
  <path d="M1 43v.25c0 2.216 1.784 4 4 4h38c2.216 0 4-1.784 4-4V43c0 2.216-1.784 4-4 4H5c-2.216 0-4-1.784-4-4zm0 .5v.5c0 2.216 1.784 4 4 4h38c2.216 0 4-1.784 4-4v-.5c0 2.216-1.784 4-4 4H5c-2.216 0-4-1.784-4-4z" opacity=".02"/>
  <path d="M1 43.25v.25c0 2.216 1.784 4 4 4h38c2.216 0 4-1.784 4-4v-.25c0 2.216-1.784 4-4 4H5c-2.216 0-4-1.784-4-4z" opacity=".05"/>
  <path d="M1 43v.25c0 2.216 1.784 4 4 4h38c2.216 0 4-1.784 4-4V43c0 2.216-1.784 4-4 4H5c-2.216 0-4-1.784-4-4z" opacity=".1"/>
  <rect width="46" y="1" rx="4" height="46" transform="rotate(-90)" x="-47" fill="url(#a)"/>
  <path d="M1 39v4c0 2.216 1.784 4 4 4h38c2.216 0 4-1.784 4-4v-4c0 2.216-1.784 4-4 4H5c-2.216 0-4-1.784-4-4zM12 11v26l7.889-6.838L24 34l4-4v6h8V12h-4l-8.904 8.617L12 11zm20.809 3H34v20h-4v-8.828l-6.049 6.047-2.541-2.373L27 24l-2.387-2.068L32.809 14zM14 15.381L23.945 24 14 32.619V15.381z" opacity=".1"/>
  <path d="M12 10v26l7.889-6.838L24 33l4-4v6h8V11h-4l-8.904 8.617L12 10zm20.809 3H34v20h-4v-8.828l-6.049 6.047-2.541-2.373L27 23l-2.387-2.068L32.809 13zM14 14.381L23.945 23 14 31.619V14.381z" fill="#f9f9f9"/>
</svg>
